X: 12935
T: Fiddler's Chair, The
R: reel
M: 4/4
K: Gmajor
[1 edBA ~G2A:|2 edBA ~G3d||
[1 edBA ~G3d:|2 edBA ~G3A||
GE E/E/E DE E/E/E|edBG A/B/A:|
[1 edBG A2:|2 edBA G2||

